X:254
T:A Good Man Is Hard To Find
Z:Jack Campin, http://www.campin.me.uk/
F:Jack Campin's Nine-Note Tunebook
% last edit 03-02-2013
C:Eddie Green
M:C
L:1/8
Q:1/4=150
K:D
   B B2B- BAFA |FF2F- F4  |F F2F- FE F2|A4- A3
 z|B B2B- BAB^B|c2A2  F4  |EF^GA  B^ABc|A4- A2
A2|B^ABA  BABc |A4-   A2A2|B^ABA  BAB^B|c4- c2||
%
|: A^A|B4-     B F^EF| B4-   B    \
 F^EF |B4-     B E^DE| B4-   B2
  ^B2 |c2B2    A c2 A| BA2c- c2   \
   A2 |d^AB^G =A^EFE | FAFE Dz
   A^A|B4-     B F^EF| B4-   B    \
 F^EF |B4-     B E^DE| B4-   B
^ABc  |d2 d2   c2  B2| A2^A2 B2   \
  =A2 |dBAF    E D3  | dBAF (ED3)|
       dDE^E   F d3  |^EF2D- D2   \
   A^A|B2c2    B2  c2| B2c2  B2A2|\
       d8-           | d4-   d2 :|

